src/view/frontend/web/svg/heroicons/outline/document-download.svg

<svg  viewBox="0 0 24 24" fill="none" stroke="currentColor" xmlns="http://www.w3.org/2000/svg">
<path d="M12 10V16M12 16L9 13M12 16L15 13M17 21H7C5.89543 21 5 20.1046 5 19V5C5 3.89543 5.89543 3 7 3H12.5858C12.851 3 13.1054 3.10536 13.2929 3.29289L18.7071 8.70711C18.8946 8.89464 19 9.149 19 9.41421V19C19 20.1046 18.1046 21 17 21Z"  stroke-width="2" stroke-linecap="round" stroke-linejoin="round"/>
</svg>

<svg xmlns="http://www.w3.org/2000/svg" fill="none" stroke="currentColor" viewBox="0 0 24 24"><path stroke-linecap="round" stroke-linejoin="round" stroke-width="2" d="M12 10v6m0 0-3-3m3 3 3-3m2 8H7a2 2 0 0 1-2-2V5a2 2 0 0 1 2-2h5.586a1 1 0 0 1 .707.293l5.414 5.414a1 1 0 0 1 .293.707V19a2 2 0 0 1-2 2Z"/></svg>
